X:1
T:Hayseed
M:3/4
L:1/4
K:C
 G| G E A| G2 E/2E/2| E- C F| E2 G| G D E| F B3/2 A/2| A G2-| G z G/2G/2|\
 G E A| G2 E| E C F| E2 G| G D E| F E D| D C2-| C z||
